X:1
T:Youkali chorus
T:Youkali chorus I tenor/bass 
T:Kurt Weill
T:Roger Fernay
T:Tenor/bass
C:Kurt Weill
Z:Roger Fernay
L:1/8
M:2/4
K:F
V:1 bass nm="Bass" snm="B."
V:1
!p! z2"^REFRAIN" z ^G, | A,2 A,2- | A,>A, G,/F,/E,/D,/ | E,>F, E,2- | E,3 E, | D,2 D,2- | %6
w: You-|ka- li,|_ C'est le pa- ys de|nos dÃ©- sirs|_ You-|ka- li,|
 D,>D, C,/B,,/A,,/G,,/ | A,,>B,, A,,2- | A,,3 A,, | E,2 E,2- | E,/D,/D,/^C,/ C,/B,,/B,,/A,,/ | %11
w: _ C'est le bon heur, c'est|le plai- sir|_ You-|ka- li,|_ C'est la terre oÃ¹ l'on quit- te|
 G,/F,E,/ D,2- | D,2"^mğ’‡" D2 | B,/A,^G,/ A,A, | B,/A,^G,/ A,A, | B,/A,^G,/ A,2- | A,2 F,2 | %17
w: tous les sou- cis|_ C'est|dans no- tre nuit comme|une Ã©- clair- cie, l'Ã©-|toi- le qu'on suit|_ C'est|
 E,>D, D,2 |!p! z2 z D, | D,2 D,2- | D,/ z/ z z2 | z4 | z3 C, | B,,2 B,,2- | B,,/ z/ z z2 | z4 | %26
w: You- ka- li|You-|ka- li,|_||You-|ka- li,|_||
 z2 !>!D,2 | A,,>G,, G,,2- | G,,G,,/A,,/ B,,/B,,/A,,/G,,/ | B,,>A,, A,,2- | A,,2 D,2 | %31
w: C'est|l'es- pÃ© rance|_ qui est au coeur de tous|les hu- mains|_ La|
 A,,>G,, G,,2- | G,,G,,/A,,/ B,,/B,,/A,,/G,,/ | B,,>A,, A,,2- | A,,2 z"^mğ’‡" A,, | F,2 F,2- | %36
w: dÃ©- li- vrance|_ que nous at- tend- ons tous|pour de- main|_ You-|ka- li,|
 F,E,/F,/ G,/F,/E,/D,/ | E,>F, E,2- | E,3 G,, | E,2 E,2- | E,^D,/E,/ G,/F,/F,/E,/ | D,>E, D,2- | %42
w: _ C'est _ le pa- ys de|nos dÃ©- sirs|_ You-|ka- li,|_ C'est * le bon- heur, c'est|le plai- sir|
 D,!p! z F,2 | E,>D, D,2- | D, z F,2 | D,>C, C,2- | C, z C,2 | A,>G, G,2- | G,2 A,2 | G,>F,- F,2 | %50
w: _ Mais|c'est un rÃªve,|_ u-|ne fo- lie|_ Il|n'y a pas|_ de|You- ka- li|
 F, z z2 | z4 | z4 | z4 | z4 | z4 |1 z4 || z4 | z4 :|2 z2!pp! =D,2 || F,4- | F,4 | F,4- | F,4 | %64
w: _|||||||||de|You|_|ka|_|
 F,4 | z4 | F,4- | F,4 |] %68
w: li!||nn|_|

